packages/tokens/icons/brokenSearch/size24Px.svg

<svg viewBox="0 0 24 24" fill="none" xmlns="http://www.w3.org/2000/svg" width="1em" height="1em"><circle cx="10" cy="10" r="7.5" stroke="currentColor"/><path d="M21.5 21L15.8432 15.3432" stroke="currentColor" stroke-linecap="round" stroke-linejoin="round"/><path fill-rule="evenodd" clip-rule="evenodd" d="M16.3536 6.85355C16.5488 6.65829 16.5488 6.34171 16.3536 6.14645C16.1583 5.95118 15.8417 5.95118 15.6465 6.14645L14 7.79289L12.8536 6.64645C12.6655 6.45841 12.3632 6.45046 12.1655 6.62835L10.1497 8.44259L7.85356 6.14645C7.6583 5.95118 7.34171 5.95118 7.14645 6.14645C6.95119 6.34171 6.95119 6.65829 7.14645 6.85355L9.40538 9.11248L7.16552 11.1284C6.96027 11.3131 6.94363 11.6292 7.12836 11.8345C7.31309 12.0397 7.62923 12.0564 7.83449 11.8716L12.4819 7.68899L13.6465 8.85355C13.8417 9.04882 14.1583 9.04882 14.3536 8.85355L16.3536 6.85355Z" fill="currentColor"/></svg>

<svg xmlns="http://www.w3.org/2000/svg" fill="none" viewBox="0 0 24 24" width="1em" height="1em"><circle cx="10" cy="10" r="7.5" stroke="currentColor"/><path stroke="currentColor" stroke-linecap="round" stroke-linejoin="round" d="m21.5 21-5.657-5.657"/><path fill="currentColor" fill-rule="evenodd" d="M16.354 6.854a.5.5 0 0 0-.707-.708L14 7.793l-1.146-1.147a.5.5 0 0 0-.688-.018L10.15 8.443 7.854 6.146a.5.5 0 1 0-.708.708l2.26 2.258-2.24 2.016a.5.5 0 1 0 .668.744l4.648-4.183 1.165 1.165a.5.5 0 0 0 .707 0l2-2Z" clip-rule="evenodd"/></svg>
